svgs/light/arrow-up-left-from-circle.svg

<svg xmlns="http://www.w3.org/2000/svg" viewBox="0 0 512 512"><!-- Font Awesome Pro 6.0.0-alpha2 by @fontawesome - https://fontawesome.com License - https://fontawesome.com/license (Commercial License) --><path d="M320 336C324.094 336 328.188 334.438 331.312 331.312C337.562 325.062 337.562 314.937 331.312 308.688L54.625 32H176C184.844 32 192 24.844 192 16S184.844 0 176 0H16C7.156 0 0 7.156 0 16V176C0 184.844 7.156 192 16 192S32 184.844 32 176V54.625L308.688 331.312C311.812 334.438 315.906 336 320 336ZM288 64C264.5 64 241.312 67.625 219.094 74.812C210.688 77.5 206.062 86.531 208.781 94.938S220.531 108 228.906 105.25C247.969 99.125 267.844 96 288 96C393.875 96 480 182.125 480 288S393.875 480 288 480S96 393.875 96 288C96 267.844 99.125 247.969 105.25 228.906C107.969 220.5 103.344 211.469 94.938 208.781C86.625 206.094 77.531 210.688 74.812 219.094C67.625 241.312 64 264.5 64 288C64 411.5 164.5 512 288 512S512 411.5 512 288S411.5 64 288 64Z"/></svg>

<svg xmlns="http://www.w3.org/2000/svg" viewBox="0 0 512 512"><!--! Font Awesome Pro 6.4.0 by @fontawesome - https://fontawesome.com License - https://fontawesome.com/license (Commercial License) Copyright 2023 Fonticons, Inc. --><path d="M176 0H16C7.2 0 0 7.2 0 16V176c0 8.8 7.2 16 16 16s16-7.2 16-16V54.6L300.7 323.3c6.2 6.2 16.4 6.2 22.6 0s6.2-16.4 0-22.6L54.6 32H176c8.8 0 16-7.2 16-16s-7.2-16-16-16zM288 64c-8.8 0-16 7.2-16 16s7.2 16 16 16c106 0 192 86 192 192s-86 192-192 192S96 394 96 288c0-8.8-7.2-16-16-16s-16 7.2-16 16c0 123.7 100.3 224 224 224s224-100.3 224-224S411.7 64 288 64z"/></svg>
